!!!OTL: IN WARSCHAU SCHWUREN TAUSEND
!!!ARE: Europa, Mitteleuropa, Deutschland
!!!SCT: F0569
!!!YEM: Copyright 1995, estate of Helmut Schaffrath.
**kern
*ICvox
*Ivox
*M4/4
*k[b-e-a-d-]
*A-:
{16e-
8.e-
16e-
=1
4.cc
8a-
8.e-
16e-
8.a-
16cc
=2
8ee-
8cc
4a-
8r}
{8cc
8b-
8an
=3
4.b-
8b-
8cc
8b-
8a-
8f
=4
4e-
4r
8.r}
{16e-
8.e-
16e-
=5
4.b-
8f
8d-
8f
8b-
8cc
=6
8.dd-
16cc
4b-
8r}
{8b-
8cc
8dd-
=7
4.cc
8cc
8.cc
16c
8.dn
16en
=8
4f
4.r}
{8cc
8b-
8a-
=9
4.b-
8e-
8.e-
16e-
8.e-
16e-
=10
4cc
4.r}
{8a-
8a-
8a-
=11
8ee-
8dd-
8b-
8g
8e-
8d-
8c
8B-
=12
4A-
4r
8.r}
==
!!!AGN: Soldaten -, Kriegs - Lied, Niederlage
!!!ONB: ESAC (Essen Associative Code) Database: FINK
!!!AMT: simple quadruple
!!!AIN: vox
!!!EED: Helmut Schaffrath
!!!EEV: 1.0
*-
